static/img/pages/index/integrations/dbeaver.svg

<svg width="73" height="89" viewBox="0 0 73 89" fill="none" xmlns="http://www.w3.org/2000/svg">
<path d="M38.2017 88.3923C27.985 85.5289 18.8003 75.8312 10.2557 58.8853C0.2627 39.067 -2.5975 21.6942 2.42468 11.3202C4.48943 7.05521 9.40593 4.45189 14.0759 5.15082C23.6065 6.5772 26.8697 13.8995 26.5466 33.1334C26.4709 37.6358 26.535 41.1775 26.689 41.0037C26.843 40.83 27.2155 39.8783 27.5167 38.8889C27.8179 37.8995 29.4245 34.4204 31.0869 31.1576C34.8156 23.8393 35.0736 22.6018 33.5567 19.3084C32.3916 16.7788 32.06 13.395 32.8532 12.1299C33.1513 11.6544 34.0532 11.4553 35.9082 11.4553H38.5402L41.5121 8.21174C44.5559 4.88964 49.258 1.41686 51.952 0.501243C54.3034 -0.297935 58.6302 -0.116393 60.6744 0.86721L62.4544 1.72371L60.8969 1.41758C54.6498 0.18973 49.3979 2.01091 44.4216 7.13066C37.9932 13.7443 33.8615 24.2614 36.0414 28.4622C36.5479 29.4382 36.545 29.439 35.5937 28.5853C35.067 28.1127 34.5558 27.8091 34.4576 27.9107C33.4682 28.9333 29.035 40.6494 27.7181 45.7218C26.0259 52.2394 25.726 60.9123 27.0147 66.0625C28.2157 70.8626 30.521 75.5844 33.1413 78.6116C34.2696 79.915 35.2729 80.9004 35.371 80.8012C35.4691 80.7021 35.0354 78.7193 34.4073 76.395C33.01 71.2248 32.5469 65.0496 33.2873 61.4594L33.8264 58.845L35.1653 61.0097C37.8937 65.421 44.4716 71.1651 47.4943 71.7761C50.1821 72.3194 50.2459 68.8356 47.6723 62.05C45.968 57.5563 45.3657 54.9704 45.0536 50.8067C44.6864 45.9088 45.4635 42.6555 48.4379 36.639C50.9536 31.5502 51.1112 30.2988 49.7775 25.9992C49.2912 24.4312 48.8907 23.0884 48.8875 23.0152C48.8844 22.9421 49.824 23.6093 50.9756 24.4979C54.5415 27.2496 58.5285 28.944 61.501 28.9711C63.9199 28.9931 64.1964 28.8875 65.3386 27.5058C66.0156 26.6868 66.9905 24.663 67.5051 23.0085L68.4407 20.0002L68.2892 23.2479L68.1376 26.4957L69.374 25.6059C70.054 25.1166 71.1481 23.6551 71.8052 22.3582L73 20.0002L72.7873 23.0034C72.6199 25.3673 72.1211 26.9874 70.4442 30.6128C67.9291 36.0503 67.803 37.6272 69.551 41.7838C71.2567 45.84 72.4406 52.2728 72.7427 59.1268C72.9729 64.3473 72.8766 65.5429 71.8438 70.2936C70.4916 76.5125 70.3225 80.9726 71.4043 81.88C73.4657 83.6089 72.6862 86.2391 69.762 87.4215C67.3861 88.3823 62.9963 88.421 60.5072 87.5032C57.7815 86.4982 55.8772 86.606 53.3318 87.9096C51.3268 88.9364 50.6623 89.0304 45.6703 88.9937C42.6639 88.9716 39.3031 88.7009 38.2017 88.3923ZM64.7302 35.7691C64.8652 35.4137 65.2445 35.2272 65.5732 35.3547C66.3481 35.6552 67.3381 34.095 68.4559 30.8117C69.7217 27.0933 69.6316 26.6528 67.9057 28.1235C66.0494 29.7054 63.9918 30.5688 62.0784 30.5688H60.5612L60.7878 32.7051C60.9124 33.88 61.1952 35.1955 61.4163 35.6283C61.9096 36.5943 64.3771 36.6992 64.7302 35.7691ZM63.1652 14.9907C60.7951 13.7971 58.9885 11.6421 59.4154 10.5178C60.057 8.82812 67.6834 6.73495 69.9812 7.61784C71.3832 8.15654 71.4569 9.33923 70.2552 12.0146C69.2234 14.3119 67.4708 16.1774 66.3446 16.1774C65.892 16.1774 64.4613 15.6434 63.1652 14.9907ZM48.5054 10.385C47.8602 8.20885 47.8555 8.28427 48.6911 7.43982C49.6934 6.42687 50.9641 6.56311 53.274 7.93116L55.2968 9.12923L53.599 9.72328C52.6652 10.05 51.2527 10.7224 50.4601 11.2174L49.019 12.1175L48.5054 10.385Z" fill="white"/>
</svg>

<svg width="73" height="89" fill="none" xmlns="http://www.w3.org/2000/svg"><path d="M38.202 88.392C27.985 85.53 18.8 75.832 10.256 58.885.263 39.067-2.598 21.695 2.425 11.32c2.064-4.265 6.98-6.868 11.65-6.17 9.532 1.427 12.795 8.75 12.472 27.983-.076 4.503-.012 8.044.142 7.87.154-.173.526-1.125.828-2.114.3-.99 1.907-4.469 3.57-7.731 3.729-7.319 3.987-8.556 2.47-11.85-1.165-2.53-1.497-5.913-.704-7.178.298-.476 1.2-.675 3.055-.675h2.632l2.972-3.243c3.044-3.322 7.746-6.795 10.44-7.71 2.351-.8 6.678-.618 8.722.365l1.78.857-1.557-.306C54.65.19 49.397 2.01 44.422 7.13c-6.429 6.613-10.56 17.13-8.38 21.331.506.976.503.977-.448.123-.527-.472-1.038-.776-1.136-.674-.99 1.022-5.423 12.738-6.74 17.81-1.692 6.518-1.992 15.191-.703 20.342 1.2 4.8 3.506 9.521 6.126 12.549 1.129 1.303 2.132 2.288 2.23 2.19.098-.1-.336-2.083-.964-4.407-1.397-5.17-1.86-11.345-1.12-14.936l.54-2.614 1.338 2.165c2.729 4.411 9.307 10.155 12.33 10.766 2.687.543 2.75-2.94.177-9.726-1.704-4.494-2.306-7.08-2.618-11.243-.368-4.898.41-8.151 3.384-14.168 2.516-5.089 2.673-6.34 1.34-10.64-.487-1.568-.887-2.91-.89-2.984-.004-.073.936.594 2.088 1.483 3.566 2.752 7.553 4.446 10.525 4.473 2.419.022 2.695-.084 3.838-1.465.677-.82 1.651-2.843 2.166-4.497L68.441 20l-.152 3.248-.151 3.248 1.236-.89c.68-.49 1.774-1.95 2.431-3.248L73 20l-.213 3.003c-.167 2.364-.666 3.984-2.343 7.61-2.515 5.437-2.641 7.014-.893 11.17 1.706 4.057 2.89 10.49 3.192 17.344.23 5.22.134 6.416-.9 11.167-1.351 6.219-1.52 10.679-.439 11.586 2.062 1.729 1.282 4.36-1.642 5.541-2.376.961-6.766 1-9.255.082-2.725-1.005-4.63-.897-7.175.407-2.005 1.026-2.67 1.12-7.662 1.084-3.006-.022-6.367-.293-7.468-.602zM64.73 35.77c.135-.355.514-.542.843-.414.775.3 1.765-1.26 2.883-4.543 1.266-3.719 1.176-4.16-.55-2.689-1.857 1.582-3.914 2.446-5.828 2.446h-1.517l.227 2.136c.124 1.175.407 2.49.628 2.923.494.966 2.961 1.071 3.314.141zm-1.565-20.778c-2.37-1.194-4.176-3.349-3.75-4.473.642-1.69 8.268-3.783 10.566-2.9 1.402.539 1.476 1.721.274 4.397-1.032 2.297-2.784 4.162-3.91 4.162-.453 0-1.884-.534-3.18-1.186zm-14.66-4.606c-.645-2.176-.65-2.1.186-2.945 1.002-1.013 2.273-.877 4.583.491l2.023 1.198-1.698.594c-.934.327-2.346 1-3.139 1.494l-1.441.9-.514-1.732z" fill="#fff"/></svg>
